static/images/logos/dac.svg

<svg width="110" height="88" viewBox="0 0 110 88" fill="none" xmlns="http://www.w3.org/2000/svg">
<path d="M54.2329 43.205H28.2671V16.295C28.2671 15.86 27.9197 15.5 27.5 15.5C27.0803 15.5 26.7329 15.86 26.7329 16.295V43.205H0.767105C0.347368 43.205 0 43.565 0 44C0 44.435 0.347368 44.795 0.767105 44.795H26.7329V71.705C26.7329 72.14 27.0803 72.5 27.5 72.5C27.9197 72.5 28.2671 72.14 28.2671 71.705V44.795H54.2329C54.6526 44.795 55 44.435 55 44C55 43.565 54.6671 43.205 54.2329 43.205Z" fill="white"/>
<path d="M23.6789 29.3599L16.0368 21.4399L13.3736 24.2149L10.696 21.4399L3.05389 29.3599L10.696 37.2799L13.3736 34.5049L16.0513 37.2799L23.6789 29.3599ZM10.696 34.6549L5.57231 29.3599L10.696 24.0499L12.1144 25.5199L8.40916 29.3599L12.1144 33.1999L10.696 34.6549ZM13.3736 26.8249L15.8197 29.3599L13.3736 31.8949L10.9276 29.3599L13.3736 26.8249ZM18.3381 29.3599L14.6328 25.5199L16.0513 24.0499L21.1749 29.3599L16.0513 34.6699L14.6328 33.2149L18.3381 29.3599Z" fill="#EF373E"/>
<path d="M46.2289 64.9849C44.8539 64.9849 43.5079 63.935 42.2197 61.85C42.0026 61.49 41.8 61.13 41.6263 60.8C41.4526 61.13 41.25 61.49 41.0329 61.85C39.7592 63.935 38.4132 64.9849 37.0382 64.9849C35.75 64.9849 34.5776 64.28 33.7092 63.005C32.9132 61.835 32.4645 60.29 32.4645 58.655C32.4645 57.02 32.8987 55.475 33.7092 54.305C34.5776 53.03 35.7645 52.325 37.0382 52.325C38.4132 52.325 39.7592 53.375 41.0329 55.4599C41.25 55.82 41.4526 56.1799 41.6263 56.51C41.8 56.1799 42.0026 55.82 42.2197 55.4599C43.4934 53.375 44.8395 52.325 46.2289 52.325C47.5171 52.325 48.6895 53.03 49.5579 54.305C50.354 55.475 50.8026 57.035 50.8026 58.655C50.8026 60.275 50.3684 61.835 49.5579 63.005C48.6895 64.28 47.5171 64.9849 46.2289 64.9849ZM42.5961 58.64C42.9289 59.405 43.3053 60.155 43.7395 60.875C44.6224 62.315 45.5342 63.125 46.2289 63.125C47.7342 63.125 49.0079 61.07 49.0079 58.64C49.0079 56.21 47.7342 54.155 46.2289 54.155C45.5342 54.155 44.6224 54.98 43.725 56.4349C43.3053 57.1399 42.9289 57.875 42.5961 58.64ZM37.0382 54.155C35.5329 54.155 34.2447 56.21 34.2447 58.64C34.2447 61.07 35.5184 63.125 37.0382 63.125C37.7329 63.125 38.6447 62.3 39.5276 60.875C39.9618 60.155 40.3526 59.405 40.6711 58.64C40.3382 57.875 39.9618 57.125 39.5276 56.405C38.6303 54.98 37.7329 54.155 37.0382 54.155Z" fill="#00AAE7"/>
<path d="M46.2434 26.2101L45.1 27.6351L46.9526 29.2401H46.229C44.8684 29.2401 43.5369 29.7651 42.5382 30.7251V23.8551L44.0724 25.7751L45.4474 24.5901L41.6263 19.8501L37.8197 24.5751L39.1947 25.7601L40.729 23.8401V30.7101C39.7158 29.7501 38.3987 29.2251 37.0382 29.2251H36.3145L38.1671 27.6201L37.0237 26.1951L32.45 30.1401L37.0092 34.0851L38.1526 32.6601L36.3 31.0551H37.0237C39.0645 31.0551 40.7145 32.7651 40.7145 34.8801V37.9101C40.7 38.4201 41.0763 38.8551 41.5684 38.8701C42.0605 38.8851 42.4803 38.4951 42.4948 37.9851C42.4948 37.9551 42.4948 37.9401 42.4948 37.9101V34.8801C42.4948 32.7651 44.1448 31.0551 46.1855 31.0551H46.9092L45.0566 32.6601L46.2 34.0851L50.8026 30.1401L46.2434 26.2101Z" fill="#62BB46"/>
<path d="M13.3737 49.01C10.3487 49.01 7.90265 51.545 7.90265 54.68C7.90265 56.18 8.4816 57.635 9.50923 58.685C10.204 59.405 10.5948 60.365 10.5948 61.385L10.5658 64.19C10.5658 64.7 10.9566 65.12 11.4487 65.12C11.5355 65.12 11.6224 65.105 11.7092 65.075L15.5013 63.89C15.8776 63.77 16.1382 63.41 16.1382 63.005L16.1526 61.415C16.1526 60.395 16.5434 59.435 17.2382 58.715C19.3803 56.495 19.3803 52.91 17.2382 50.69C16.2105 49.625 14.8211 49.025 13.3737 49.01ZM15.979 57.395C14.9513 58.46 14.3724 59.9 14.3869 61.4V62.315L12.375 62.945V61.4C12.375 59.9 11.7961 58.46 10.7684 57.395C9.32107 55.895 9.32107 53.48 10.7684 51.98C12.2158 50.48 14.5461 50.48 15.9934 51.98C17.4408 53.48 17.4263 55.895 15.979 57.395Z" fill="#FAA41A"/>
<path d="M14.9947 65.0151L11.2026 66.2001C10.725 66.3501 10.4645 66.8601 10.6092 67.3551C10.7539 67.8501 11.246 68.1201 11.7237 67.9701L12.5631 67.7151C12.7079 68.0601 13.0263 68.2851 13.3881 68.2851C13.8802 68.2851 14.271 67.8651 14.2855 67.3551V67.1751L15.5447 66.7851C16.0079 66.6201 16.2684 66.0951 16.1092 65.6151C15.9355 65.1651 15.4579 64.8951 14.9947 65.0151Z" fill="#FAA41A"/>
<path d="M87.8408 34.8799H83.9474L77.1737 53.0449H79.6777L81.6316 47.7949H90.1277L92.0816 53.0449H94.5855L87.8408 34.8799ZM82.3842 45.5899L84.5263 39.8899L85.6842 36.6949H86.104L87.2908 39.9049L89.4184 45.5899H82.3842Z" fill="white"/>
<path d="M104.182 53.2551C101.475 53.2551 99.4198 52.4751 98.0448 50.9151C96.6698 49.3551 95.975 47.0451 95.975 44.0001C95.975 40.9101 96.6698 38.5551 98.0303 36.9801C99.3908 35.4051 101.461 34.6101 104.138 34.6101C104.717 34.6101 105.455 34.6701 106.15 34.7451C107.453 34.8801 108.726 35.1351 109.971 35.5101V37.6851C109.551 37.4601 107.091 37.0101 106.034 36.9201C105.397 36.8601 104.818 36.8151 104.326 36.8151C102.329 36.8151 100.824 37.4001 99.8685 38.5701C98.9132 39.7401 98.4211 41.5551 98.4211 43.9851C98.4211 46.4151 98.8987 48.2001 99.825 49.3551C100.751 50.5101 102.199 51.0801 104.138 51.0801C104.413 51.0801 104.746 51.0651 105.122 51.0351C105.499 51.0051 105.89 50.9601 106.28 50.9151C106.671 50.8701 107.062 50.8101 107.409 50.7501C107.757 50.6901 108.075 50.6151 108.321 50.5551C108.321 50.5551 109.436 50.2701 109.942 50.0901V52.2501C109.609 52.3851 108.379 52.7001 108.379 52.7001C108.075 52.7751 107.742 52.8501 107.38 52.9251C107.018 53.0001 106.642 53.0451 106.251 53.0901C105.861 53.1351 105.499 53.1801 105.122 53.2101C104.746 53.2401 104.486 53.2551 104.182 53.2551Z" fill="white"/>
<path d="M73.4829 36.905C71.9487 35.42 69.5171 34.655 66.2605 34.655C64.8711 34.655 61.1369 34.88 60.4855 34.94V52.955C61.1369 53.015 64.8566 53.24 66.2605 53.24C69.5171 53.24 71.9342 52.49 73.4829 50.99C75.0316 49.49 75.7987 47.12 75.7987 43.94C75.7987 40.76 75.0171 38.405 73.4829 36.905ZM71.7026 49.385C70.6316 50.51 68.8803 51.08 66.4921 51.08C65.6816 51.08 63.4816 50.96 62.9895 50.93V36.995C63.4961 36.95 65.6816 36.83 66.4921 36.83C68.8658 36.83 70.6171 37.4 71.7026 38.525C72.7882 39.65 73.3237 41.465 73.3237 43.955C73.3237 46.445 72.7882 48.26 71.7026 49.385Z" fill="white"/>
</svg>

<svg xmlns="http://www.w3.org/2000/svg" width="110" height="88" fill="none" viewBox="0 0 110 88"><path fill="#fff" d="M54.233 43.205H28.267v-26.91c0-.435-.347-.795-.767-.795s-.767.36-.767.795v26.91H.767c-.42 0-.767.36-.767.795s.347.795.767.795h25.966v26.91c0 .435.347.795.767.795s.767-.36.767-.795v-26.91h25.966c.42 0 .767-.36.767-.795s-.333-.795-.767-.795"/><path fill="#ef373e" d="m23.679 29.36-7.642-7.92-2.663 2.775-2.678-2.775-7.642 7.92 7.642 7.92 2.678-2.775 2.677 2.775zm-12.983 5.295L5.572 29.36l5.124-5.31 1.418 1.47-3.705 3.84 3.705 3.84zm2.678-7.83 2.446 2.535-2.446 2.535-2.446-2.535zm4.964 2.535-3.705-3.84 1.418-1.47 5.124 5.31-5.124 5.31-1.418-1.455z"/><path fill="#00aae7" d="M46.229 64.985c-1.375 0-2.721-1.05-4.01-3.135-.216-.36-.419-.72-.593-1.05-.173.33-.376.69-.593 1.05-1.274 2.085-2.62 3.135-3.995 3.135-1.288 0-2.46-.705-3.329-1.98-.796-1.17-1.245-2.715-1.245-4.35s.435-3.18 1.245-4.35c.869-1.275 2.055-1.98 3.33-1.98 1.374 0 2.72 1.05 3.994 3.135.217.36.42.72.593 1.05.174-.33.377-.69.594-1.05 1.273-2.085 2.62-3.135 4.009-3.135 1.288 0 2.46.705 3.329 1.98.796 1.17 1.245 2.73 1.245 4.35s-.435 3.18-1.245 4.35c-.868 1.275-2.04 1.98-3.33 1.98m-3.633-6.345c.333.765.71 1.515 1.144 2.235.882 1.44 1.794 2.25 2.489 2.25 1.505 0 2.779-2.055 2.779-4.485s-1.274-4.485-2.78-4.485c-.694 0-1.606.825-2.503 2.28q-.63 1.057-1.129 2.205m-5.558-4.485c-1.505 0-2.793 2.055-2.793 4.485s1.273 4.485 2.793 4.485c.695 0 1.607-.825 2.49-2.25.434-.72.825-1.47 1.143-2.235a19 19 0 0 0-1.143-2.235c-.898-1.425-1.795-2.25-2.49-2.25"/><path fill="#62bb46" d="M46.243 26.21 45.1 27.635l1.853 1.605h-.724c-1.36 0-2.692.525-3.69 1.485v-6.87l1.533 1.92 1.375-1.185-3.82-4.74-3.807 4.725 1.375 1.185 1.534-1.92v6.87a5.36 5.36 0 0 0-3.69-1.485h-.724l1.852-1.605-1.143-1.425-4.574 3.945 4.56 3.945 1.143-1.425-1.853-1.605h.724c2.04 0 3.69 1.71 3.69 3.825v3.03c-.014.51.362.945.854.96a.904.904 0 0 0 .927-.885V34.88c0-2.115 1.65-3.825 3.69-3.825h.724l-1.852 1.605 1.143 1.425 4.603-3.945z"/><path fill="#faa41a" d="M13.374 49.01c-3.025 0-5.471 2.535-5.471 5.67 0 1.5.579 2.955 1.606 4.005a3.87 3.87 0 0 1 1.086 2.7l-.03 2.805c0 .51.392.93.884.93a.8.8 0 0 0 .26-.045l3.792-1.185a.93.93 0 0 0 .637-.885l.015-1.59c0-1.02.39-1.98 1.085-2.7 2.142-2.22 2.142-5.805 0-8.025a5.45 5.45 0 0 0-3.864-1.68m2.605 8.385a5.7 5.7 0 0 0-1.592 4.005v.915l-2.012.63V61.4c0-1.5-.579-2.94-1.607-4.005a3.92 3.92 0 0 1 0-5.415 3.596 3.596 0 0 1 5.225 0c1.448 1.5 1.433 3.915-.014 5.415M14.995 65.015 11.203 66.2c-.478.15-.739.66-.594 1.155s.637.765 1.115.615l.84-.255a.9.9 0 0 0 .824.57c.492 0 .883-.42.898-.93v-.18l1.259-.39a.937.937 0 0 0 .564-1.17c-.174-.45-.651-.72-1.114-.6"/><path fill="#fff" d="M87.84 34.88h-3.893l-6.773 18.165h2.504l1.954-5.25h8.496l1.954 5.25h2.504zm-5.456 10.71 2.142-5.7 1.158-3.195h.42l1.187 3.21 2.127 5.685zM104.182 53.255c-2.707 0-4.762-.78-6.137-2.34s-2.07-3.87-2.07-6.915c0-3.09.695-5.445 2.055-7.02s3.431-2.37 6.108-2.37c.579 0 1.317.06 2.012.135q1.954.203 3.821.765v2.175c-.42-.225-2.88-.675-3.937-.765a19 19 0 0 0-1.708-.105c-1.997 0-3.502.585-4.457 1.755s-1.448 2.985-1.448 5.415.478 4.215 1.404 5.37 2.374 1.725 4.313 1.725c.275 0 .608-.015.984-.045.377-.03.768-.075 1.158-.12.391-.045.782-.105 1.129-.165.348-.06.666-.135.912-.195 0 0 1.115-.285 1.621-.465v2.16c-.333.135-1.563.45-1.563.45q-.456.113-.999.225c-.362.075-.738.12-1.129.165-.39.045-.752.09-1.129.12-.376.03-.636.045-.94.045M73.483 36.905c-1.534-1.485-3.966-2.25-7.223-2.25-1.389 0-5.123.225-5.775.285v18.015c.652.06 4.372.285 5.775.285 3.257 0 5.674-.75 7.223-2.25s2.316-3.87 2.316-7.05-.782-5.535-2.316-7.035m-1.78 12.48c-1.071 1.125-2.823 1.695-5.21 1.695-.811 0-3.011-.12-3.503-.15V36.995c.506-.045 2.692-.165 3.502-.165 2.374 0 4.125.57 5.21 1.695 1.086 1.125 1.622 2.94 1.622 5.43s-.536 4.305-1.621 5.43"/></svg>
